packages/icons/src/account-settings.svg

<svg viewBox="0 0 16 16" xmlns="http://www.w3.org/2000/svg">
<path fill-rule="evenodd" clip-rule="evenodd" d="M11.0775 10.332L7.75194 12.2872C7.55039 12.3849 7.44961 12.3849 7.24806 12.2872L3.92248 10.332L2.41085 11.2118L7.44961 14.1446L12.5891 11.2118L11.0775 10.332ZM2.55391 5.54175L5.33333 3.87984C5.33333 3.87984 5.93798 3.09776 4.82946 3L1.20155 5.15071C1 5.24847 1 5.44399 1 5.54175C1 5.73727 1.10078 5.83503 1.20155 5.93279L2.91473 6.91039L1.20155 7.88798C1 7.98574 1 8.18126 1 8.27902C1 8.47454 1.10078 8.5723 1.20155 8.67006L2.91473 9.64766L1.20155 10.6253C1 10.723 1 10.9185 1 11.0163C1 11.2118 1.10078 11.3096 1.20155 11.4073L7.24806 14.9267C7.44961 15.0244 7.55039 15.0244 7.75194 14.9267L13.7984 11.4073C13.8992 11.3096 14 11.1141 14 11.0163C14 10.8208 13.8992 10.723 13.7984 10.6253L12.0853 9.64766L13.7984 8.67006C14.1008 8.37678 13.7984 7.54048 13.093 7.88798C11.9652 8.44356 10.0698 9.35438 10.0698 9.35438C10.0698 9.35438 5.72676 7.25731 2.55391 5.54175Z" fill="currentColor"/>
<path fill-rule="evenodd" clip-rule="evenodd" d="M13.9077 5.38968L13.3671 4.95215C13.3928 4.80286 13.4058 4.65184 13.4059 4.50057C13.4059 4.34901 13.3926 4.1974 13.3671 4.04896L13.9077 3.61144C13.991 3.54427 14.0215 3.43489 13.9844 3.33642L13.977 3.31612C13.8276 2.92159 13.6064 2.55906 13.3192 2.23872L13.3044 2.22231C13.2333 2.14322 13.1181 2.11371 13.0147 2.14808L12.3437 2.37389C12.0961 2.1817 11.8196 2.03012 11.5209 1.92389L11.3913 1.25978C11.3715 1.15743 11.2865 1.07774 11.1784 1.05897L11.1561 1.05508C10.7261 0.981641 10.2739 0.981641 9.84389 1.05508L9.82161 1.05897C9.71348 1.07774 9.62849 1.15743 9.60867 1.25978L9.47829 1.92701C9.182 2.03326 8.90716 2.18401 8.66123 2.37545L7.98532 2.14808C7.88216 2.11371 7.76661 2.14263 7.69566 2.22231L7.68078 2.23872C7.39357 2.55982 7.17239 2.92235 7.02304 3.31612L7.01561 3.33642C6.97848 3.43408 7.00898 3.5435 7.09236 3.61144L7.63952 4.05366C7.61394 4.20054 7.60154 4.35053 7.60154 4.49977C7.60154 4.64979 7.61394 4.79978 7.63952 4.94589L7.09236 5.3881C7.00898 5.4553 6.97848 5.56467 7.01561 5.66312L7.02304 5.68344C7.17239 6.07721 7.39357 6.4405 7.68078 6.76084L7.69566 6.77725C7.7667 6.85633 7.88184 6.88584 7.98532 6.85149L8.66123 6.62411C8.90715 6.81555 9.18199 6.96711 9.47829 7.0726L9.60867 7.73982C9.62849 7.84218 9.71348 7.92186 9.82161 7.9406L9.84389 7.94449C10.0604 7.98138 10.28 7.99996 10.5 8C10.7204 8 10.9415 7.98122 11.1561 7.94449L11.1784 7.9406C11.2865 7.92186 11.3715 7.84218 11.3913 7.73982L11.5209 7.07573C11.8196 6.96943 12.0961 6.81869 12.3437 6.62568L13.0147 6.85149C13.1178 6.88586 13.2334 6.85694 13.3044 6.77725L13.3192 6.76084C13.6064 6.43974 13.8276 6.07721 13.977 5.68344L13.9844 5.66312C14.0215 5.56705 13.991 5.45767 13.9077 5.38968ZM12.7813 4.14069C12.8021 4.25973 12.8126 4.38019 12.8126 4.50086C12.8126 4.62199 12.8019 4.74306 12.7813 4.86101L12.7268 5.17433L13.3433 5.67359C13.2501 5.87749 13.1321 6.06971 12.9917 6.24861L12.2259 5.99156L11.9667 6.19315C11.7695 6.34627 11.5499 6.4666 11.3123 6.55098L10.9978 6.66268L10.8501 7.42055C10.6182 7.44554 10.3814 7.44554 10.1486 7.42055L10.0009 6.66112L9.68892 6.54785C9.4537 6.46346 9.23502 6.34314 9.03941 6.19078L8.7803 5.98843L8.00944 6.24781C7.86916 6.06889 7.75194 5.87593 7.65789 5.67281L8.28096 5.16889L8.22733 4.85638C8.20751 4.73994 8.19679 4.61961 8.19679 4.50087C8.19679 4.38134 8.2067 4.26177 8.22733 4.14538L8.28096 3.83288L7.65789 3.32893C7.75114 3.12503 7.86916 2.93283 8.00944 2.75391L8.7803 3.01328L9.03941 2.81093C9.23502 2.65857 9.4537 2.53825 9.68892 2.4539L10.0017 2.34215L10.1494 1.58273C10.3814 1.55773 10.6182 1.55773 10.8509 1.58273L10.9987 2.3406L11.3131 2.45234C11.5499 2.53669 11.7703 2.65701 11.9675 2.81013L12.2267 3.01172L12.9925 2.75468C13.1329 2.93359 13.2501 3.1266 13.3441 3.32973L12.7276 3.82895L12.7813 4.14069Z" fill="currentColor"/>
<path fill-rule="evenodd" clip-rule="evenodd" d="M10.5333 3.05338C9.78863 3.05338 9.18491 3.65715 9.18491 4.40183C9.18491 5.14655 9.78863 5.75027 10.5333 5.75027C11.278 5.75027 11.8818 5.14655 11.8818 4.40183C11.8818 3.65715 11.278 3.05338 10.5333 3.05338ZM11.1402 5.00915C10.9778 5.17084 10.7625 5.26047 10.5334 5.26047C10.3043 5.26047 10.089 5.17083 9.92661 5.00915C9.76494 4.84675 9.67533 4.63146 9.67533 4.40236C9.67533 4.17331 9.76494 3.95799 9.92661 3.79557C10.089 3.63313 10.3043 3.54429 10.5334 3.54429C10.7625 3.54429 10.9778 3.63313 11.1402 3.79557C11.3019 3.958 11.3915 4.17331 11.3915 4.40236C11.3915 4.63146 11.3019 4.84675 11.1402 5.00915Z" fill="currentColor"/>
</svg>

<svg xmlns="http://www.w3.org/2000/svg" viewBox="0 0 16 16"><path fill="currentColor" fill-rule="evenodd" d="m11.078 10.332-3.326 1.955c-.202.098-.302.098-.504 0l-3.326-1.955-1.511.88 5.039 2.933 5.14-2.933-1.512-.88Zm-8.524-4.79 2.78-1.662s.604-.782-.505-.88L1.202 5.15C1 5.249 1 5.445 1 5.543c0 .195.1.293.202.39l1.713.978-1.713.978C1 7.986 1 8.181 1 8.279c0 .196.1.293.202.391l1.713.978-1.713.977C1 10.723 1 10.918 1 11.016c0 .196.1.294.202.391l6.046 3.52c.202.097.302.097.504 0l6.046-3.52c.101-.097.202-.293.202-.39 0-.196-.1-.294-.202-.392l-1.713-.977 1.713-.978c.303-.293 0-1.13-.705-.782-1.128.556-3.023 1.466-3.023 1.466S5.727 7.257 2.554 5.542Z" clip-rule="evenodd"/><path fill="currentColor" fill-rule="evenodd" d="m13.908 5.39-.54-.438a2.672 2.672 0 0 0 0-.903l.54-.438a.242.242 0 0 0 .076-.275l-.007-.02a3.428 3.428 0 0 0-.658-1.077l-.015-.017a.275.275 0 0 0-.29-.074l-.67.226a2.952 2.952 0 0 0-.823-.45l-.13-.664a.258.258 0 0 0-.213-.201l-.022-.004a3.935 3.935 0 0 0-1.312 0l-.022.004a.258.258 0 0 0-.213.2l-.13.668a2.946 2.946 0 0 0-.818.448l-.676-.227a.274.274 0 0 0-.29.074l-.014.017a3.444 3.444 0 0 0-.658 1.077l-.007.02a.242.242 0 0 0 .076.275l.548.443a2.606 2.606 0 0 0 0 .892l-.548.442a.242.242 0 0 0-.076.275l.007.02c.15.394.37.758.658 1.078l.015.016c.07.08.186.109.29.074l.675-.227c.246.192.521.343.817.449l.13.667c.02.102.105.182.214.2l.022.004a3.912 3.912 0 0 0 1.312 0l.022-.003a.258.258 0 0 0 .213-.201l.13-.664c.299-.107.575-.257.823-.45l.67.225a.274.274 0 0 0 .29-.074l.015-.016c.287-.321.509-.684.658-1.078l.007-.02a.24.24 0 0 0-.076-.273ZM12.78 4.14a2.092 2.092 0 0 1 0 .721l-.054.313.616.5a2.85 2.85 0 0 1-.351.575l-.766-.257-.26.201a2.342 2.342 0 0 1-.654.358l-.314.112-.148.758a3.291 3.291 0 0 1-.701 0L10 6.66l-.312-.113a2.343 2.343 0 0 1-.65-.357l-.259-.203-.77.26a2.918 2.918 0 0 1-.352-.575l.623-.504-.054-.313a2.132 2.132 0 0 1 0-.71l.054-.313-.623-.504c.093-.204.211-.396.351-.575l.771.26.26-.203c.195-.152.414-.273.649-.357l.313-.112.147-.76a3.29 3.29 0 0 1 .702 0l.148.759.314.111c.237.085.457.205.654.358l.26.202.765-.257c.14.179.258.372.352.575l-.616.499.053.312Z" clip-rule="evenodd"/><path fill="currentColor" fill-rule="evenodd" d="M10.533 3.053a1.348 1.348 0 1 0 0 2.697 1.348 1.348 0 0 0 0-2.697Zm.607 1.956a.855.855 0 0 1-1.213 0 .855.855 0 0 1 0-1.213.852.852 0 0 1 .606-.252.855.855 0 0 1 .607 1.465Z" clip-rule="evenodd"/></svg>
